X: 40968
T: Trip To Dingle, The
R: polka
M: 2/4
K: Emajor
z B BG|Bc G z|z e cB|cB G/F/E|C2 B,C|EF GB|Bc GF|G/F/E CB,|
z B BG|Bc G z|z e cB|cB G/F/E|C2 B,C|EF GB|Bc GF|E2 e2||
c2 Bc|ef g z|FE/F/ GF|G/F/E C2|c2 Bc|ef gb|bc' eg|f2 fe|
c2 Bc|ef g z|FE/F/ GF|G/F/E CB,|C2 B,C|EF GB|Bc GF|G/F/E CB,||

